X: 27
T: Miss McLeod's
Z: UPipes & harp
S: https://thesession.org/tunes/75#setting49902
R: reel
M: 4/4
L: 1/8
K: Gmaj
|:G2BG DGBG|DBBA BcBA|G2BG DGBG|AFDF AcBA|
G2BG DGBG|DBBA Bcdg|edcB Bdef|gedB AcBA:|
|:G2gf efge|dBBA BcBA|G2 gf efgf|eaab agef|
~g3 f efge|dBBA Bcdg|edcB Adef|gedB AcBA:|

